X:103
T:Fireman's Reel
M:2/4
L:1/16
K:A
E2|:AcBc AcE2|Ac2e f2e2|agae fecA|[1 BcBA F2E2:|[2 B2B2A2||(3(efg)|aa2b agfe|
fece fece|aa2b agfe|fecA B2(3(efg)|aa2b agfe|fece fece|f2af ecBA|GEFG A2||
